!!!COM: Palestrina, Giovanni Perluigi da
!!!OPR: Missa Veni creator Spiritus
!!!OMD: Gloria
!!!OTL: coda
**kern	**kern	**kern	**kern	**kern	**kern
*Ibass	*Itenor	*Itenor	*Icalto	*Icant	*Icant
!Bassus	!Tenor 2	!Tenor 1	!Altus	!Cantus 2	!Cantus 1
*clefF4	*clefGv2	*clefGv2	*clefG2	*clefG2	*clefG2
*k[]	*k[]	*k[]	*k[]	*k[]	*k[]
*G:mix	*G:mix	*G:mix	*G:mix	*G:mix	*G:mix
*M3/2	*M3/2	*M3/2	*M3/2	*M3/2	*M3/2
=103	=103	=103	=103	=103	=103
2G	1r	2d	2g	2dd	2b
2.G	.	2.d	2.g	2.dd	2.b
.	2r	.	.	.	.
4G	.	4d	4g	4dd	4b
=104	=104	=104	=104	=104	=104
1c	1r	2c	1g	1ee	1cc
.	.	1e	.	.	.
2c	2r	.	2cc	2gg	2r
=105	=105	=105	=105	=105	=105
2F	1r	2a	2cc	2ff	1r
1c	.	1g	1cc	1ee	.
.	2r	.	.	.	2r
=106	=106	=106	=106	=106	=106
2d	1r	2f	2a	1dd	1r
1A	.	2e	2a	.	.
.	2r	2e	2a	2cc#	2r
=107	=107	=107	=107	=107	=107
2G	2G	2g	2d	1.dd	2b
2r	2.G	2.g	2.d	.	2.b
2r	.	.	.	.	.
.	4G	4g	4d	.	4b
=108	=108	=108	=108	=108	=108
1r	2c	1g	1e	2r	1cc
.	1c	.	.	1gg	.
2r	.	2e	2g	.	2cc
=109	=109	=109	=109	=109	=109
1r	2F	2f	2cc	2ff	2a
.	1f	2r	1cc	1ff	1a
2r	.	2r	.	.	.
=110	=110	=110	=110	=110	=110
1r	2g	1r	1b	1dd	2g
.	1e	.	.	.	1g
2r	.	2r	2g	2cc#	.
=111	=111	=111	=111	=111	=111
2r	1d	2r	1a	1dd	1f#
2r	.	2r	.	.	.
2D	2A	2d	2a	2dd	2f
=112	=112	=112	=112	=112	=112
2.D	2.A	2.d	2.f	2.ff	2.a
4D	4A	4d	4d	4ff	4a
2A	2A	2c	2e	2ee	2a
=113	=113	=113	=113	=113	=113
1F	1A	1c	1a	1ff	1cc
2C	2c	2e	2g	2ee	2cc
=114	=114	=114	=114	=114	=114
1E	1G	2g	2e	1ee	1b
.	.	2G	1g	.	.
[2G	[2B	4G	.	[2dd	[2b
.	.	4A	.	.	.
=115	=115	=115	=115	=115	=115
2G]	2B]	4B	2.g	2dd]	2b]
.	.	4G	.	.	.
1D	1d	1A	.	1dd	1a
.	.	.	8f#	.	.
.	.	.	8e	.	.
.	.	.	2f#	.	.
=116	=116	=116	=116	=116	=116
1G	1d	2B	[1.g	1b	[1.g
.	.	2r	.	.	.
2C	2c	2e	.	2cc	.
=117	=117	=117	=117	=117	=117
2.C	2.c	2.e	1.g]	2.ee	1.g]
4C	4c	4c	.	4ee	.
2G	2B	2d	.	2dd	.
=118	=118	=118	=118	=118	=118
2E	2B	2.g	[1.g	2ee	[1.g
2C	2c	.	.	2ee	.
.	.	4f	.	.	.
2E	2B	2e	.	[2gg	.
=119	=119	=119	=119	=119	=119
2G	2B	2d	1.g]	4gg]	1.g]
.	.	.	.	4ff	.
1C	1e	1c	.	2ee	.
.	.	.	.	2cc	.
=120	=120	=120	=120	=120	=120
1.G	1.d	1.B	1.g	1.dd	1.g
==	==	==	==	==	==
*-	*-	*-	*-	*-	*-
!!!CDT: 1525/^1526/-1594/2/2
!!!OCY: Italia
!!!AGN: Mass (Tenor)
!!!AST: renaissance, vocal
!!!ASW: Hymn
!!!PWK: Masses, Book 9
!!!RNB: Cadence finals: C,D
!!!YOR: Le Opere Complete, v. 25, p. 246
!!!YOO: Rome, Italy: Fratelli Scalera
!!!END: 1992//
!!!EED: John Miller
!!!YEC: Copyright 2000, John Miller
!!!YEN: United States of America
!!!YEM: Rights to all derivative electronic formats reserved.
!!!YEM: Refer to licensing agreement for further details.
!!!YEM: This file must be accompanied by the licensing agreement.
!!!YEM: A copy of the licensing agreement may be found at http://www.music-cog.ohio-state.edu/HumdrumDatabases/Palestrina/license.txt
!!!EMD: converted to Humdrum by Bret Aarden
